src/categories-icons-sprite/categories/svg-cat-books-child.svg

<svg width="23" height="30" viewBox="0 0 23 30" fill="none" xmlns="http://www.w3.org/2000/svg">
<path class="p-54469D" d="M22.8511 11.4846L21.0933 13.2424L22.8511 15.0001V24.7265L14.0622 25.7461L6.90799 26.5721C6.90799 26.2558 1.75781 25.9393 1.75781 25.6054V3.42814L6.94324 0.000488281H14.0622L16.6989 2.12744L19.3355 0.000488281H22.8511V11.4846Z" fill="#58ADE5"/>
<path class="p-463B85" d="M22.8514 11.4846L21.0936 13.2423L22.8514 15.0001V24.7264L14.0625 25.7461V0.000455965L17.1386 0L19.3358 0.000455965H22.8514V11.4846Z" fill="#4D98CB"/>
<path class="p-CB75F6" d="M7.03109 13.2424C7.03109 11.1198 5.51867 9.34483 3.51554 8.93629V5.24405C5.51867 4.83551 7.03109 3.00198 7.03109 0.879374C7.03109 0.577486 6.99309 0.28544 6.93473 0.000488281H0V27.3631L4.9799 26.7884L6.91276 26.5655C6.98256 26.2549 7.03109 25.9365 7.03109 25.6054C7.03109 23.4828 5.51867 21.7078 3.51554 21.2993V17.5485C5.51867 17.1399 7.03109 15.365 7.03109 13.2424Z" fill="#A1D1FD"/>
<path class="p-C6E2E7" d="M17.5781 11.4846H22.8514V15.0002H17.5781V11.4846Z" fill="#A1D1FD"/>
<path class="p-463B85" d="M22.851 26.4843L21.0933 27.3632L22.851 28.2421V29.9999H2.63666C1.17757 29.9999 0 28.8223 0 27.3632C0 25.9041 1.17757 24.7266 2.63666 24.7266H22.851V26.4843Z" fill="#5FBEFF"/>
<path class="p-392E6E" d="M22.8514 26.4843L21.0936 27.3632L22.8514 28.2421V29.9999H14.0625V24.7266H22.8514V26.4843Z" fill="#65B3E7"/>
<path class="p-DEECF1" d="M22.8511 26.4841V28.2419H2.6367C2.14438 28.2419 1.75781 27.8553 1.75781 27.363C1.75781 26.8707 2.14438 26.4841 2.6367 26.4841H22.8511Z" fill="#B9DFFC"/>
<path class="p-C6E2E7" d="M14.0625 26.4841H22.8514V28.2419H14.0625V26.4841Z" fill="#A1D1FD"/>
<path class="p-FFE470" d="M14.0624 8.8479C11.6368 8.8479 9.66797 10.8167 9.66797 13.2423C9.66797 15.668 11.6368 17.6368 14.0624 17.6368C16.488 17.6368 18.4568 15.668 18.4568 13.2423C18.4568 10.8167 16.488 8.8479 14.0624 8.8479Z" fill="#B9DFFC"/>
<path class="p-FFD400" d="M18.4569 13.2423C18.4569 15.668 16.4881 17.6368 14.0625 17.6368V8.8479C16.4881 8.8479 18.4569 10.8167 18.4569 13.2423Z" fill="#A1D1FD"/>
<path class="p-FDBF00" d="M14.0624 10.606C12.6034 10.606 11.4258 11.7835 11.4258 13.2426C11.4258 14.7017 12.6034 15.8793 14.0624 15.8793C15.5215 15.8793 16.6991 14.7017 16.6991 13.2426C16.6991 11.7835 15.5215 10.606 14.0624 10.606Z" fill="#5FBEFF"/>
<path class="p-FF9F00" d="M16.6992 13.2426C16.6992 14.7017 15.5216 15.8793 14.0625 15.8793V10.606C15.5216 10.606 16.6992 11.7835 16.6992 13.2426Z" fill="#58ADE5"/>
<path class="p-FFE470" d="M13.1836 12.3635H14.9414V14.1213H13.1836V12.3635Z" fill="#B9DFFC"/>
<path class="p-FFD400" d="M14.0625 12.3635H14.9414V14.1213H14.0625V12.3635Z" fill="#A1D1FD"/>
</svg>

<svg width="23" height="30" fill="none" xmlns="http://www.w3.org/2000/svg"><path class="p-54469D" d="M22.851 11.485l-1.758 1.757L22.851 15v9.727l-8.789 1.02-7.154.825c0-.316-5.15-.633-5.15-.967V3.428L6.943 0h7.12l2.636 2.127L19.335 0h3.516v11.485z" fill="#58ADE5"/><path class="p-463B85" d="M22.851 11.485l-1.757 1.757L22.85 15v9.726l-8.788 1.02V0h8.788v11.485z" fill="#4D98CB"/><path class="p-CB75F6" d="M7.031 13.242a4.402 4.402 0 00-3.515-4.306V5.244C5.519 4.836 7.03 3.002 7.03.879c0-.302-.038-.594-.096-.879H0v27.363l4.98-.575 1.933-.223c.07-.31.118-.629.118-.96A4.402 4.402 0 003.516 21.3v-3.75a4.402 4.402 0 003.515-4.307z" fill="#A1D1FD"/><path class="p-C6E2E7" d="M17.578 11.485h5.273V15h-5.273v-3.515z" fill="#A1D1FD"/><path class="p-463B85" d="M22.851 26.484l-1.758.88 1.758.878V30H2.637A2.633 2.633 0 010 27.363a2.633 2.633 0 012.637-2.636H22.85v1.757z" fill="#5FBEFF"/><path class="p-392E6E" d="M22.851 26.484l-1.757.88 1.757.878V30h-8.788v-5.273h8.788v1.757z" fill="#65B3E7"/><path class="p-DEECF1" d="M22.851 26.484v1.758H2.637a.87.87 0 01-.88-.879.87.87 0 01.88-.879H22.85z" fill="#B9DFFC"/><path class="p-C6E2E7" d="M14.063 26.484h8.788v1.758h-8.788v-1.758z" fill="#A1D1FD"/><path class="p-FFE470" d="M14.062 8.848a4.396 4.396 0 00-4.394 4.394 4.396 4.396 0 004.394 4.395 4.396 4.396 0 004.395-4.395 4.396 4.396 0 00-4.395-4.394z" fill="#B9DFFC"/><path class="p-FFD400" d="M18.457 13.242a4.396 4.396 0 01-4.395 4.395v-8.79a4.396 4.396 0 014.395 4.395z" fill="#A1D1FD"/><path class="p-FDBF00" d="M14.062 10.606a2.633 2.633 0 00-2.636 2.637 2.633 2.633 0 002.636 2.636 2.633 2.633 0 002.637-2.636 2.633 2.633 0 00-2.637-2.637z" fill="#5FBEFF"/><path class="p-FF9F00" d="M16.7 13.243a2.633 2.633 0 01-2.637 2.636v-5.273a2.633 2.633 0 012.636 2.637z" fill="#58ADE5"/><path class="p-FFE470" d="M13.184 12.364h1.757v1.757h-1.757v-1.758z" fill="#B9DFFC"/><path class="p-FFD400" d="M14.063 12.364h.878v1.757h-.879v-1.758z" fill="#A1D1FD"/></svg>
